packages/icons/src/SVG/tree-solid.svg

<!-- Generated by IcoMoon.io -->
<svg version="1.1" xmlns="http://www.w3.org/2000/svg" width="12" height="12" viewBox="0 0 12 12">
<title>tree-solid</title>
<path d="M4 1v4h1.5v1h-4.5v2h-1v4h4v-4h-2v-1h8v1h-2v4h4v-4h-1v-2h-4.5v-1h1.5v-4h-4z"></path>
</svg>

<svg width="12" height="12" viewBox="0 0 12 12" fill="none" xmlns="http://www.w3.org/2000/svg">
<path d="M4 1V5H5.5V6H1V8H0V12L4 12V8H2V7H10V8H8V12H12V8H11V6H6.5V5H8V1H4Z" fill="#4C505B"/>
</svg>
